images_elementary_svg/cmd/sc_assignlayout.svg

<?xml version="1.0" encoding="UTF-8" standalone="no"?>
<svg
   xmlns:dc="http://purl.org/dc/elements/1.1/"
   xmlns:cc="http://creativecommons.org/ns#"
   xmlns:rdf="http://www.w3.org/1999/02/22-rdf-syntax-ns#"
   xmlns:svg="http://www.w3.org/2000/svg"
   xmlns="http://www.w3.org/2000/svg"
   xmlns:xlink="http://www.w3.org/1999/xlink"
   xmlns:sodipodi="http://sodipodi.sourceforge.net/DTD/sodipodi-0.dtd"
   xmlns:inkscape="http://www.inkscape.org/namespaces/inkscape"
   viewBox="0 0 16 16"
   version="1.1"
   id="svg21"
   sodipodi:docname="sc_assignlayout.svg"
   inkscape:version="0.92.3 (unknown)"><metadata
   id="metadata27">
  <rdf:RDF>
    <cc:Work
       rdf:about="">
      <dc:format>image/svg+xml</dc:format>
      <dc:type
         rdf:resource="http://purl.org/dc/dcmitype/StillImage" />
    </cc:Work>
  </rdf:RDF>
</metadata>
<defs
   id="defs25">
  <linearGradient
     gradientTransform="matrix(0.28571361,0,0,0.30419701,1.1428727,0.2326048)"
     gradientUnits="userSpaceOnUse"
     xlink:href="#linearGradient3600"
     id="linearGradient3940"
     y2="22.246752"
     x2="45.000053"
     y1="22.246752"
     x1="9.9999695" />
  <linearGradient
     id="linearGradient3600">
    <stop
       offset="0"
       style="stop-color:#f4f4f4;stop-opacity:1"
       id="stop3602" />
    <stop
       offset="1"
       style="stop-color:#dbdbdb;stop-opacity:1"
       id="stop3604" />
  </linearGradient>
  <linearGradient
     gradientTransform="matrix(0.24324324,0,0,0.35135133,2.1621636,-0.43242804)"
     gradientUnits="userSpaceOnUse"
     xlink:href="#linearGradient3977"
     id="linearGradient3095"
     y2="23.999989"
     x2="40.444439"
     y1="23.999989"
     x1="7.5555496" />
  <linearGradient
     id="linearGradient3977">
    <stop
       offset="0"
       style="stop-color:#ffffff;stop-opacity:1"
       id="stop3979" />
    <stop
       offset="0.25000018"
       style="stop-color:#ffffff;stop-opacity:0.23529412"
       id="stop3981" />
    <stop
       offset="1"
       style="stop-color:#ffffff;stop-opacity:0.15686275"
       id="stop3983" />
    <stop
       offset="1"
       style="stop-color:#ffffff;stop-opacity:0.39215687"
       id="stop3985" />
  </linearGradient>
  <linearGradient
     gradientTransform="matrix(0.25378586,0,0,0.30501865,19.128979,-0.68547704)"
     gradientUnits="userSpaceOnUse"
     xlink:href="#linearGradient3104-9"
     id="linearGradient3092"
     y2="2.9062471"
     x2="-51.786404"
     y1="50.786446"
     x1="-51.786404" />
  <linearGradient
     id="linearGradient3104-9">
    <stop
       offset="0"
       style="stop-color:#000000;stop-opacity:0.33950618"
       id="stop3106-5" />
    <stop
       offset="1"
       style="stop-color:#000000;stop-opacity:0.24691358"
       id="stop3108-5" />
  </linearGradient>
</defs>
<sodipodi:namedview
   pagecolor="#ffffff"
   bordercolor="#666666"
   borderopacity="1"
   objecttolerance="10"
   gridtolerance="10"
   guidetolerance="10"
   inkscape:pageopacity="0"
   inkscape:pageshadow="2"
   inkscape:window-width="1366"
   inkscape:window-height="706"
   id="namedview23"
   showgrid="false"
   inkscape:zoom="14.75"
   inkscape:cx="-0.71186441"
   inkscape:cy="8"
   inkscape:window-x="0"
   inkscape:window-y="0"
   inkscape:window-maximized="1"
   inkscape:current-layer="svg21" />
<linearGradient
   id="a"
   gradientTransform="matrix(-.99749995 0 0 -.99749995 45.982263 33.857733)"
   gradientUnits="userSpaceOnUse"
   x1="35.452969"
   x2="35.452969"
   y1="31.550577"
   y2="18.89035">
  <stop
     offset="0"
     stop-color="#fff"
     id="stop2" />
  <stop
     offset="1"
     stop-color="#fff"
     stop-opacity="0"
     id="stop4" />
</linearGradient>


     /&gt;
 <g
   id="g946"
   transform="rotate(90,8,8)">
  <path
     style="display:inline;fill:url(#linearGradient3940);fill-opacity:1;stroke:none"
     id="path4160"
     d="m 3,1 c 2.2915074,0 9.999988,8.904e-4 9.999988,8.904e-4 L 13,15 C 13,15 6.3333332,15 3,15 3,10.333334 3,5.6666664 3,1 Z"
     inkscape:connector-curvature="0" />
  <path
     style="fill:none;stroke:url(#linearGradient3095);stroke-width:1;stroke-linecap:round;stroke-linejoin:miter;stroke-miterlimit:4;stroke-dasharray:none;stroke-dashoffset:0;stroke-opacity:1"
     id="rect6741-1"
     d="M 12.5,14.5 H 3.4999999 V 1.5 H 12.5 Z"
     inkscape:connector-curvature="0" />
  <path
     style="display:inline;fill:none;stroke:url(#linearGradient3092);stroke-width:0.99992192;stroke-linecap:butt;stroke-linejoin:round;stroke-miterlimit:4;stroke-dasharray:none;stroke-dashoffset:0;stroke-opacity:1"
     id="path4160-8"
     d="m 2.4999621,0.49997396 c 2.5206756,0 11.0000629,9.54e-4 11.0000629,9.54e-4 l 1.3e-5,14.99909804 c 0,0 -7.3333841,0 -11.000076,0 0,-5.000017 0,-10.000035 10e-8,-15.00005204 z"
     inkscape:connector-curvature="0" />
</g>
<path
   d="m15.5 15.5-15-14.99999972v14.99999972zm-6.999999-3.000001h-5v-4.9999987z"
   fill="#9cde4a"
   fill-rule="evenodd"
   id="path15" />
<path
   d="m13.093343 14.5-11.593343-11.6248397v11.6248397z"
   fill="none"
   stroke="url(#a)"
   id="path17" />
<path
   d="m15.5 15.5-15-14.99999972v14.99999972zm-6.999999-3.000001h-5v-4.9999987z"
   fill="none"
   stroke="#5ca12a"
   stroke-linejoin="round"
   id="path19" />
</svg>

<svg xmlns="http://www.w3.org/2000/svg" xmlns:xlink="http://www.w3.org/1999/xlink" viewBox="0 0 16 16"><defs><linearGradient gradientTransform="matrix(.2857 0 0 .3042 1.143 .233)" gradientUnits="userSpaceOnUse" xlink:href="#a" id="d" y2="22.247" x2="45" y1="22.247" x1="10"/><linearGradient id="a"><stop offset="0" stop-color="#f4f4f4"/><stop offset="1" stop-color="#dbdbdb"/></linearGradient><linearGradient gradientTransform="matrix(.24324 0 0 .35135 2.162 -.432)" gradientUnits="userSpaceOnUse" xlink:href="#b" id="e" y2="24" x2="40.444" y1="24" x1="7.556"/><linearGradient id="b"><stop offset="0" stop-color="#fff"/><stop offset=".25" stop-color="#fff" stop-opacity=".235"/><stop offset="1" stop-color="#fff" stop-opacity=".157"/><stop offset="1" stop-color="#fff" stop-opacity=".392"/></linearGradient><linearGradient gradientTransform="matrix(.2538 0 0 .30502 19.13 -.685)" gradientUnits="userSpaceOnUse" xlink:href="#c" id="f" y2="2.906" x2="-51.786" y1="50.786" x1="-51.786"/><linearGradient id="c"><stop offset="0" stop-opacity=".34"/><stop offset="1" stop-opacity=".247"/></linearGradient></defs><linearGradient id="g" gradientTransform="matrix(-.9975 0 0 -.9975 45.982 33.858)" gradientUnits="userSpaceOnUse" x1="35.453" x2="35.453" y1="31.551" y2="18.89"><stop offset="0" stop-color="#fff"/><stop offset="1" stop-color="#fff" stop-opacity="0"/></linearGradient>/&gt;<path d="M3 1h10v14H3V1z" fill="url(#d)" transform="rotate(90 8 8)"/><path d="M12.5 14.5h-9v-13h9z" fill="none" stroke="url(#e)" stroke-linecap="round" transform="rotate(90 8 8)"/><path d="M2.5.5h11v15h-11V.5z" fill="none" stroke="url(#f)" stroke-linejoin="round" transform="rotate(90 8 8)"/><path d="M15.5 15.5L.5.5v15zm-7-3h-5v-5z" fill="#9cde4a" fill-rule="evenodd"/><path d="M13.093 14.5L1.5 2.875V14.5z" fill="none" stroke="url(#g)"/><path d="M15.5 15.5L.5.5v15zm-7-3h-5v-5z" fill="none" stroke="#5ca12a" stroke-linejoin="round"/></svg>
